X:17
T:Bouree
C:J.S. Bach
N:TablEdited by 
L:1/8
Q:1/4=150
M:4/4
K:G
z6 Bc |: d2 GF G2 g2 | [f2A2D2] ef d2 AB | c2 FE F2 d2 | [cDG,]B AB G2 gf | ef gd ^cf gB | 
Af gG FA ^ce | a2 fd A2 ^c2 |1 d2 A2 D2 Bc :|2 d2 A2 D2 fg |: a2 fd c2 f2 | Bd ga b2 g^d | 
e2 ce Ag fe | Be ^d^c B2 fB | ge ^de fB gB | af ef gB aB | Gb fg B2 e^d | e2 B2 E2 ef | 
g2 ^cB c2 A2 | DA ge f2 dc | Bd gB Ac' bg | ag fe d2 fg | af de fd AB | cA FG AF Dc | 
BG Dd BG Dg | dB cA BG DB | AB cG FB cE | DB cC B,D FA | d2 BG D2 F2 |1 [G6G,6] fg :| 
K:F
|2 [G6G,6] ga |: b2 ag ^f2 g2 | ag ^fe dc BA | Bd cB Ac BA | G^F GA Bc de | f2 _ed c2 B2 | 
AB cd _ef ga | b2 ag f_e dc |1 B6 ga :|2 B6 Bc |: d2 dc d2 e2 | fe fg fg af | 
df ef gf ed | ^c2 =Bc A2 ag | a2 BA B2 d2 | g^f ga b2 a2 | gf ed fe d^c | d2 A2 D2 d_e | 
f2 _ed c=B cd | f_e dc a4 | z^f ga ba gb | ag ^fe dc BA | BA cB dc _ed | DE ^FG AB cA | 
cB AG BA G^F |1 [G6G,6] Bc :|2 [G6G,6] =Bc | 
K:G
d2 GF G2 g2 | [f2A2D2] ef d2 AB | c2 FE F2 d2 | [cDG,]B AB G2 gf | ef gd ^cf gB | 
Af gG FA ^ce | a2 fd A2 ^c2 | d2 A2 D2 fg | a2 fd c2 f2 | Bd ga b2 g^d | e2 ce Ag fe | 
Be ^d^c B2 fB | ge ^de fB gB | af ef gB aB | Gb fg B2 e^d | e2 B2 E2 ef | g2 ^cB c2 A2 | 
DA ge f2 dc | Bd gB Ac' bg | ag fe d2 fg | af de fd AB | cA FG AF Dc | BG Dd BG Dg | 
dB cA BG DB | AB cG FB cE | DB cC B,D FA | d2 BG D2 F2 | [G8G,8] | 
 

